X: 3
T:Road to Lisdoonvarna
M:6/8
L:1/8
Q:180
R:Jig
K:Em
"Em"E2B B2A|B2c d3|"D"F2A ABA|D2E "(Bm)"FED|
"Em"E2B B2A|B2c d3|"A"cdc "Bm"B2A|1 "Em"B2E E2D-:|2"Em"B2E E3|:
"Em"e2f gfe|"G"d2B Bcd|"A"c2A ABc|"Bm"d2c B3|
"Em"e2f gfe|"G"d2B B2d|"A"cdc "Bm"B2A|"Em"B2E E3:|
